src/com/lilithsthrone/res/clothing/sock_fishnets.svg

<?xml version="1.0" encoding="UTF-8"?>
<svg cursor="default" version="1.1" viewBox="0 0 256 256" xmlns="http://www.w3.org/2000/svg" xmlns:cc="http://creativecommons.org/ns#" xmlns:dc="http://purl.org/dc/elements/1.1/" xmlns:rdf="http://www.w3.org/1999/02/22-rdf-syntax-ns#">
 <metadata>
  <rdf:RDF>
   <cc:Work rdf:about="">
    <dc:format>image/svg+xml</dc:format>
    <dc:type rdf:resource="http://purl.org/dc/dcmitype/StillImage"/>
    <dc:title/>
   </cc:Work>
  </rdf:RDF>
 </metadata>
 <path d="m167.8 250c1.781 1 3.276 2.14 7.412 0 4.234 1.572 9.418 0.526 10.303-0.88 2.093-2.941 0.495-27.145-0.503-33.043-1.84-10.878 2.903-60.865 3.267-89.706 0.22-17.518-5.136-24.407-5.78-36.812-0.977-18.84-1.85-43.723 1.493-66.5l-37.49 5.026c4.71 27.473 5.963 56.804 12.189 73.159 1.29 3.387 2.184 7.273 2.073 10.553-0.889 26.21 9.187 69.735 9.046 79.153-0.228 15.153-2.094 29.986-3.141 45.355-0.68 7.734-0.386 12.844 1.13 13.695z" fill="#666" fill-rule="evenodd" stroke="#000" stroke-width="1.4"/>
 <path d="m72.236 248.97c-3.267 0.952-6.06 1.313-7.95-0.044-5.651-0.235-7.725-1.821-6.975-4.664 2.442-9.25 3.271-15.363 4.62-23.098 0.224-1.284 0.06-3.102 0.243-4.662 0.184-1.57 0.716-2.884 0.823-4.4 0.14-1.977-0.33-4.863-0.039-7.462 0.435-3.887 1.322-4.817 1.638-7.286 2.313-18.025 2.51-36.322 5.33-54.192 1-6.325 1.217-13.043 2.327-19.265 1.784-9.998 5.121-19.124 8.512-27.82 1.633-4.189 2.094-9.102 2.987-13.688 0.88-4.525 2.533-8.671 3.054-13.32 1.726-15.406 2.31-44.242 2.31-44.242 13.158-0.648 26.453-1.928 37.313 7.996-1.916 16.873-10.084 43.453-16.198 59.446-3.144 8.224-4.987 10.023-6.723 14.113-3.274 7.715-2.587 18.808-5.697 31.775-4.064 16.944-14.924 41.231-18.645 58.487-1.727 8.01 1.526 12.508 1.954 18.478 0.292 4.054-1.965 7.824-3.02 11.727-1.658 7.64-2.607 21.174-5.864 22.121z" fill="#666" fill-rule="evenodd" stroke="#000" stroke-width="1.4"/>
 <g fill="none">
  <path d="m122.82 30.26c2.264 4.02 1.927 7.91 2.167 12.155m-10.083-15.925c5.458 10.89 5.64 21.778 6.031 32.667m-13.191-33.923c8.224 16.58 9.955 34.557 9.548 46.612m-18.218-46.863c10.379 24.463 14.706 44.937 13.915 59.553m-19.605-59.441c6.95 23.72 16.029 45.46 15.145 71.49m-19.577-64.907c5.931 23.928 15.408 46.66 14.785 74.083m-15.342-58.006c7.555 39.885 13.328 46.946 12.187 72.84m-13.066-57.292c3.398 35.753 9.742 44.3 10.82 72.657m-12.956-59.873c-1.163 26.467 8.863 47.187 9.985 70.64m-13.471-54.245c0.496 22.785 8.316 38.948 9.642 65.05m-14.417-51.826c-1.138 22.11 8.332 38.11 11.276 60.37m-16.271-40.99c1.29 19.256 11.11 33.736 12.125 52.297m-14.234-35.216c1.87 17.146 9.871 25.514 11.721 44.262m-13.317-30.531c3.258 16.864 10.052 23.02 11.455 37.752m-12.697-24.337 11.418 29.93m-12.564-15.453c3.612 8.544 8.576 16.133 13.703 24.855m-14.833-13.547c4.448 9.824 10.13 12.888 16.238 21.955m-18.123-6.879c11.066 15.017 10.29 11.054 14.951 16.02m-16.207-2.451c3.926 3.53 4.639 8.227 15.328 9.298m-17.339 0.879c4.468 2.806 7.728 6.238 15.58 7.287m-2.262 6.785c-5.558-0.524-10.69-2.538-15.579-5.403m39.953-217.98c-3.71 5.743-6.814 11.985-8.857 19.725m23.18-18.594c-19.22 14.718-18.665 22.134-24.03 32.352m32.699-29.211c-16.552 14.436-28.519 28.825-34.017 42.591m39.796-38.696c-13.76 16.051-27.618 31.812-41.712 46.863m40.456-37.566c-12.414 16.914-24.505 34.532-42.089 45.952m-4.68 14.92c37.551-31.485 36.47-38.068 44.319-49.627m-49.062 65.269c7.828-14.362 16.316-11.259 44.036-47.523m-45.669 58.202c3.005-9.711 22.25-21.542 40.487-42.717m-41.744 50.884c9.135-13.44 24.018-22.734 36.121-37.252m-37.251 47.428 31.912-33.67m-33.435 47.351 31.425-31.019m-32.541 43.597c11.807-14.002 19.472-20.055 29.332-30.013m-30.41 43.19c3.79-8.723 16.162-20.453 26.848-31.683m-27.927 41.851c5.058-13.19 16.242-22.133 24.883-33.234m-26.621 48.711c7.58-17.413 15.16-25.128 22.741-37.691m-25.578 57.157c4.491-13.87 10.57-21.702 18.564-33.522m-21.166 45.133c8.342-19.127 17.426-30.931 21.88-37.825m-18.137 42.429c12.602-20.006 8.534-24.69 19.286-35.398" stroke="#000" stroke-width="1.4"/>
  <path d="m122.82 30.26c2.264 4.02 1.927 7.91 2.167 12.155m-10.083-15.925c5.458 10.89 5.64 21.778 6.031 32.667m-13.191-33.923c8.224 16.58 9.955 34.557 9.548 46.612m-18.218-46.863c10.379 24.463 14.706 44.937 13.915 59.553m-19.605-59.441c6.95 23.72 16.029 45.46 15.145 71.49m-19.577-64.907c5.931 23.928 15.408 46.66 14.785 74.083m-15.342-58.006c7.555 39.885 13.328 46.946 12.187 72.84m-13.066-57.292c3.398 35.753 9.742 44.3 10.82 72.657m-12.956-59.873c-1.163 26.467 8.863 47.187 9.985 70.64m-13.471-54.245c0.496 22.785 8.316 38.948 9.642 65.05m-14.417-51.826c-1.138 22.11 8.332 38.11 11.276 60.37m-16.271-40.99c1.29 19.256 11.11 33.736 12.125 52.297m-14.234-35.216c1.87 17.146 9.871 25.514 11.721 44.262m-13.317-30.531c3.258 16.864 10.052 23.02 11.455 37.752m-12.697-24.337 11.418 29.93m-12.564-15.453c3.612 8.544 8.576 16.133 13.703 24.855m-14.833-13.547c4.448 9.824 10.13 12.888 16.238 21.955m-18.123-6.879c11.066 15.017 10.29 11.054 14.951 16.02m-16.207-2.451c3.926 3.53 4.639 8.227 15.328 9.298m-17.339 0.879c4.468 2.806 7.728 6.238 15.58 7.287m-2.262 6.785c-5.558-0.524-10.69-2.538-15.579-5.403m39.953-217.98c-3.71 5.743-6.814 11.985-8.857 19.725m23.18-18.594c-19.22 14.718-18.665 22.134-24.03 32.352m32.699-29.211c-16.552 14.436-28.519 28.825-34.017 42.591m39.796-38.696c-13.76 16.051-27.618 31.812-41.712 46.863m40.456-37.566c-12.414 16.914-24.505 34.532-42.089 45.952m-4.68 14.92c37.551-31.485 36.47-38.068 44.319-49.627m-49.062 65.269c7.828-14.362 16.316-11.259 44.036-47.523m-45.669 58.202c3.005-9.711 22.25-21.542 40.487-42.717m-41.744 50.884c9.135-13.44 24.018-22.734 36.121-37.252m-37.251 47.428 31.912-33.67m-33.435 47.351 31.425-31.019m-32.541 43.597c11.807-14.002 19.472-20.055 29.332-30.013m-30.41 43.19c3.79-8.723 16.162-20.453 26.848-31.683m-27.927 41.851c5.058-13.19 16.242-22.133 24.883-33.234m-26.621 48.711c7.58-17.413 15.16-25.128 22.741-37.691m-25.578 57.157c4.491-13.87 10.57-21.702 18.564-33.522m-21.166 45.133c8.342-19.127 17.426-30.931 21.88-37.825m-18.137 42.429c12.602-20.006 8.534-24.69 19.286-35.398" stroke="#ff2a2a" stroke-width=".995"/>
  <path d="m66.467 249.31c6.023-10.97 7.916-15.747 11.873-23.62m100.13-201.59c2.154 3.326 3.133 5.478 4.397 7.915m-14.738-6.771c6.198 7.443 10.581 16.792 13.482 26.12m-24.248-24.626c17.701 15.663 19.853 37.491 24.5 49.125m-31.285-47.617c7.78 11.102 29.563 48.129 32.046 63.063m-35.002-56.573c19.406 46.404 22.766 35.518 37.58 69.173m-35.703-55.287c6.879 32.006 29.892 44.505 38.645 73.35m-36.886-59.33c7.842 33.09 31.926 46.868 36.82 70.638m-34.765-56.205c5.672 26.157 30.648 47.126 34.203 69.145m-29.65-47.365 29.03 58.947m-26.207-41.683c8.684 22.296 19.532 35.064 25.696 50.203m-25.045-37.241c6.702 19.557 20.385 34.187 24.417 47.041m-22.896-33.611c5.757 17.859 20.994 34.162 22.252 47.224m-20.322-33.529c5.069 16.33 17.621 29.58 19.872 45.579m-17.515-30.777c5.124 13.055 15.783 30.376 17.619 43.047m-15.217-26.374c4.035 12.86 13.914 24.338 16.482 37.998m-16.535-25.251c4.46 10.036 11.777 18.456 16.822 30.618m-17.168-23.159c6.592 13.323 14.421 20.428 17.33 30.908m-18.173-22.956c6.402 10.264 14.805 21.224 17.988 30.415m-18.882-22.64c4.737 2.4 11.69 17.712 15.96 26.472m-16.338-20.442c2.932 4.074 3.76 3.136 12.434 20.902m-13.12-11.309c3.874 4.749 5.173 8.098 6.467 11.205m-20.184-222.78-3.91 15.192m12.083-16.257-10.306 28.962m18.834-30.028-17.323 42.287m28.073-43.976-26.874 53.127m29.85-46.507-28.384 53.702m27.362-40.599-24.342 54.77m23.81-39.8c-2.404 17.087-16.232 30.19-20.967 49.44m21.322-34.826c-7.167 21.44-16.823 34.088-20.922 50.639m21.41-37.624c-3.59 18.265-17.473 35.768-20.033 52.193m21.677-39.355c-4.472 18.744-14.385 28.99-20.478 48.195m22.53-39.644c-3.56 21.306-12.798 35.181-20.767 50.976m1.822 12.438c8.841-19.837 18.088-29.357 21.11-48.097m-0.539 20.165c-5.591 14.9-13.18 21.64-19.064 36.413m1.069 9.171c1.181-8.475 11.659-19.898 17.4-31.032m-0.88 15.328c-5.687 9.052-15.329 19.457-16.706 27.171m15.764-12.346c-5.562 7.436-12.32 14.535-16.536 23.166m16.034-11.67c-6.511 5.96-11.915 12.825-16.585 20.29m16.145-8.983c-3.298 0.364-9.928 9.404-17.15 18.532m18.218-8.543c-8.149 2.99-12.377 12.227-18.846 17.4m19.852-8.48c-4.956 0.75-13.36 9.632-20.04 14.448m20.116-6.902c-6.27 1.535-12.385 6.62-19.174 12.43m19.348-5.151c-8.234-0.213-8.796 4.006-13.757 6.47" stroke="#000" stroke-width="1.4"/>
  <g stroke="#ff2a2a" stroke-width=".995">
   <path d="m66.467 249.31c6.023-10.97 7.916-15.747 11.873-23.62m100.13-201.59c2.154 3.326 3.133 5.478 4.397 7.915m-14.738-6.771c6.198 7.443 10.581 16.792 13.482 26.12m-24.248-24.626c17.701 15.663 19.853 37.491 24.5 49.125m-31.285-47.617c7.78 11.102 29.563 48.129 32.046 63.063m-35.002-56.573c19.406 46.404 22.766 35.518 37.58 69.173m-35.703-55.287c6.879 32.006 29.892 44.505 38.645 73.35m-36.886-59.33c7.842 33.09 31.926 46.868 36.82 70.638m-34.765-56.205c5.672 26.157 30.648 47.126 34.203 69.145m-29.65-47.365 29.03 58.947m-26.207-41.683c8.684 22.296 19.532 35.064 25.696 50.203m-25.045-37.241c6.702 19.557 20.385 34.187 24.417 47.041m-22.896-33.611c5.757 17.859 20.994 34.162 22.252 47.224m-20.322-33.529c5.069 16.33 17.621 29.58 19.872 45.579m-17.515-30.777c5.124 13.055 15.783 30.376 17.619 43.047m-15.217-26.374c4.035 12.86 13.914 24.338 16.482 37.998m-16.535-25.251c4.46 10.036 11.777 18.456 16.822 30.618m-17.168-23.159c6.592 13.323 14.421 20.428 17.33 30.908m-18.173-22.956c6.402 10.264 14.805 21.224 17.988 30.415m-18.882-22.64c4.737 2.4 11.69 17.712 15.96 26.472m-16.338-20.442c2.932 4.074 3.76 3.136 12.434 20.902m-13.12-11.309c3.874 4.749 5.173 8.098 6.467 11.205m-20.184-222.78-3.91 15.192m12.083-16.257-10.306 28.962m18.834-30.028-17.323 42.287m28.073-43.976-26.874 53.127m29.85-46.507-28.384 53.702m27.362-40.599-24.342 54.77m23.81-39.8c-2.404 17.087-16.232 30.19-20.967 49.44m21.322-34.826c-7.167 21.44-16.823 34.088-20.922 50.639m21.41-37.624c-3.59 18.265-17.473 35.768-20.033 52.193m21.677-39.355c-4.472 18.744-14.385 28.99-20.478 48.195m22.53-39.644c-3.56 21.306-12.798 35.181-20.767 50.976m1.822 12.438c8.841-19.837 18.088-29.357 21.11-48.097m-0.539 20.165c-5.591 14.9-13.18 21.64-19.064 36.413m1.069 9.171c1.181-8.475 11.659-19.898 17.4-31.032m-0.88 15.328c-5.687 9.052-15.329 19.457-16.706 27.171m15.764-12.346c-5.562 7.436-12.32 14.535-16.536 23.166m16.034-11.67c-6.511 5.96-11.915 12.825-16.585 20.29m16.145-8.983c-3.298 0.364-9.928 9.404-17.15 18.532m18.218-8.543c-8.149 2.99-12.377 12.227-18.846 17.4m19.852-8.48c-4.956 0.75-13.36 9.632-20.04 14.448m20.116-6.902c-6.27 1.535-12.385 6.62-19.174 12.43m19.348-5.151c-8.234-0.213-8.796 4.006-13.757 6.47"/>
   <path d="m167.8 250c1.781 1 3.276 2.14 7.412 0 4.234 1.572 9.418 0.526 10.303-0.88 2.093-2.941 0.495-27.145-0.503-33.043-1.84-10.878 2.903-60.865 3.267-89.706 0.22-17.518-5.136-24.407-5.78-36.812-0.977-18.84-1.85-43.723 1.493-66.5l-37.49 5.026c4.71 27.473 5.963 56.804 12.189 73.159 1.29 3.387 2.184 7.273 2.073 10.553-0.889 26.21 9.187 69.735 9.046 79.153-0.228 15.153-2.094 29.986-3.141 45.355-0.68 7.734-0.386 12.844 1.13 13.695z"/>
   <path d="m72.236 248.97c-3.267 0.952-6.06 1.313-7.95-0.044-5.651-0.235-7.725-1.821-6.975-4.664 2.442-9.25 3.271-15.363 4.62-23.098 0.224-1.284 0.06-3.102 0.243-4.662 0.184-1.57 0.716-2.884 0.823-4.4 0.14-1.977-0.33-4.863-0.039-7.462 0.435-3.887 1.322-4.817 1.638-7.286 2.313-18.025 2.51-36.322 5.33-54.192 1-6.325 1.217-13.043 2.327-19.265 1.784-9.998 5.121-19.124 8.512-27.82 1.633-4.189 2.094-9.102 2.987-13.688 0.88-4.525 2.533-8.671 3.054-13.32 1.726-15.406 2.31-44.242 2.31-44.242 13.158-0.648 26.453-1.928 37.313 7.996-1.916 16.873-10.084 43.453-16.198 59.446-3.144 8.224-4.987 10.023-6.723 14.113-3.274 7.715-2.587 18.808-5.697 31.775-4.064 16.944-14.924 41.231-18.645 58.487-1.727 8.01 1.526 12.508 1.954 18.478 0.292 4.054-1.965 7.824-3.02 11.727-1.658 7.64-2.607 21.174-5.864 22.121z"/>
  </g>
 </g>
 <path d="m88.755 26.753c-0.045-5.801 0.48508-14.317 1.2281-16.537 2.866-1.38 5.161-0.189 7.58 0.444 5.965-2.417 10.878 0.782 16.207 1.76 6.028-1.168 10.318 0.194 12.438 4.71 3.5747-0.23959 4.5203 0.14481 5.0153 3.0278-1.3831 2.9987-3.846 10.142-4.5206 12.874-10.021-5.1533-25.058-8.274-37.948-6.279z" fill="#ff8080" fill-rule="evenodd" stroke="#000" stroke-width=".8"/>
 <path d="m146.38 29.454c-1.2534-5.808-1.7581-13.464-1.734-19.884 2.198-0.29866 3.3257 0.95466 3.924 1.467 3.893-4.492 10.457-2.77 13.569-2.136 2.973-2.393 11.894-2.207 14.26-0.942 2.0436-1.2972 5.6337-2.7556 8.669 1.508 0.42646 4.2312 0.072 10.152-1.084 15.959-7.105-1.676-25.563 0.7689-37.604 4.0279z" fill="#ff8080" fill-rule="evenodd" stroke="#000" stroke-width=".8"/>
</svg>

<svg xmlns="http://www.w3.org/2000/svg" cursor="default" viewBox="0 0 256 256">
    <g stroke="#ff2a2a" stroke-width=".995">
        <path fill="#666" fill-rule="evenodd" d="M72.236 248.97c-3.267.952-6.06 1.313-7.95-.044-5.651-.235-7.725-1.821-6.975-4.664 2.442-9.25 3.271-15.363 4.62-23.098.224-1.284.06-3.102.243-4.662.184-1.57.716-2.884.823-4.4.14-1.977-.33-4.863-.039-7.462.435-3.887 1.322-4.817 1.638-7.286 2.313-18.025 2.51-36.322 5.33-54.192 1-6.325 1.217-13.043 2.327-19.265 1.784-9.998 5.121-19.124 8.512-27.82 1.633-4.189 2.094-9.102 2.987-13.688.88-4.525 2.533-8.671 3.054-13.32 1.726-15.406 2.31-44.242 2.31-44.242 13.158-.648 26.453-1.928 37.313 7.996-1.916 16.873-10.084 43.453-16.198 59.446-3.144 8.224-4.987 10.023-6.723 14.113-3.274 7.715-2.587 18.808-5.697 31.775-4.064 16.944-14.924 41.231-18.645 58.487-1.727 8.01 1.526 12.508 1.954 18.478.292 4.054-1.965 7.824-3.02 11.727-1.658 7.64-2.607 21.174-5.864 22.121z"/>
        <path fill="none" d="M122.816 30.26c2.264 4.02 1.927 7.91 2.167 12.155M114.9 26.49c5.458 10.89 5.64 21.778 6.031 32.667M107.74 25.234c8.224 16.58 9.955 34.557 9.548 46.612M99.07 24.983c10.379 24.463 14.706 44.937 13.915 59.553M93.38 25.095c6.95 23.72 16.029 45.46 15.145 71.49M88.948 31.678c5.931 23.928 15.408 46.66 14.785 74.083M88.391 47.755c7.555 39.885 13.328 46.946 12.187 72.84M87.512 63.303c3.398 35.753 9.742 44.3 10.82 72.657M85.376 76.087c-1.163 26.467 8.863 47.187 9.985 70.64M81.89 92.482c.496 22.785 8.316 38.948 9.642 65.05M77.115 105.706c-1.138 22.11 8.332 38.11 11.276 60.37M72.12 125.086c1.29 19.256 11.11 33.736 12.125 52.297M70.011 142.167c1.87 17.146 9.871 25.514 11.721 44.262M68.415 155.898c3.258 16.864 10.052 23.02 11.455 37.752M67.173 169.313l11.418 29.93M66.027 183.79c3.612 8.544 8.576 16.133 13.703 24.855M64.897 195.098c4.448 9.824 10.13 12.888 16.238 21.955M63.012 210.174c11.066 15.017 10.29 11.054 14.951 16.02M61.756 223.743c3.926 3.53 4.639 8.227 15.328 9.298M59.745 233.92c4.468 2.806 7.728 6.238 15.58 7.287M73.063 247.992c-5.558-.524-10.69-2.538-15.579-5.403M97.437 24.606c-3.71 5.743-6.814 11.985-8.857 19.725M111.76 25.737C92.54 40.455 93.095 47.871 87.73 58.089M120.429 28.878C103.877 43.314 91.91 57.703 86.412 71.469M126.208 32.773c-13.76 16.051-27.618 31.812-41.712 46.863M124.952 42.07c-12.414 16.914-24.505 34.532-42.089 45.952M78.183 102.942c37.551-31.485 36.47-38.068 44.319-49.627M73.44 118.584c7.828-14.362 16.316-11.259 44.036-47.523M71.807 129.263c3.005-9.711 22.25-21.542 40.487-42.717M70.55 137.43c9.135-13.44 24.018-22.734 36.121-37.252M69.42 147.606l31.912-33.67M67.897 161.287l31.425-31.019M66.781 173.865c11.807-14.002 19.472-20.055 29.332-30.013M65.703 187.042c3.79-8.723 16.162-20.453 26.848-31.683M64.624 197.21c5.058-13.19 16.242-22.133 24.883-33.234M62.886 212.687c7.58-17.413 15.16-25.128 22.741-37.691M60.049 232.153c4.491-13.87 10.57-21.702 18.564-33.522M57.447 243.764c8.342-19.127 17.426-30.931 21.88-37.825M61.19 248.368c12.602-20.006 8.534-24.69 19.286-35.398"/>
        <path fill="#ff8080" fill-rule="evenodd" d="M89.06 26.753c-.045-5.801.18-14.317.923-16.537 2.866-1.38 5.161-.189 7.58.444 5.965-2.417 10.878.782 16.207 1.76 6.028-1.168 10.318.194 12.438 4.71 6.151-.104 3.3 4.416 3.795 7.299-1.502 2.158-2.629 5.144-3.54 8.603-15.295-8.381-33.677-6.943-37.404-6.28z"/>
        <path fill="#666" fill-rule="evenodd" d="M167.795 250.002c1.781 1 3.276 2.14 7.412 0 4.234 1.572 9.418.526 10.303-.88 2.093-2.941.495-27.145-.503-33.043-1.84-10.878 2.903-60.865 3.267-89.706.22-17.518-5.136-24.407-5.78-36.812-.977-18.84-1.85-43.723 1.493-66.5l-37.49 5.026c4.71 27.473 5.963 56.804 12.189 73.159 1.29 3.387 2.184 7.273 2.073 10.553-.889 26.21 9.187 69.735 9.046 79.153-.228 15.153-2.094 29.986-3.141 45.355-.68 7.734-.386 12.844 1.13 13.695z"/>
        <path fill="none" d="M66.467 249.31c6.023-10.97 7.916-15.747 11.873-23.62M178.474 24.104c2.154 3.326 3.133 5.478 4.397 7.915M168.133 25.248c6.198 7.443 10.581 16.792 13.482 26.12M157.367 26.742c17.701 15.663 19.853 37.491 24.5 49.125M150.582 28.25c7.78 11.102 29.563 48.129 32.046 63.063M147.626 34.74c19.406 46.404 22.766 35.518 37.58 69.173M149.503 48.626c6.879 32.006 29.892 44.505 38.645 73.35M151.262 62.646c7.842 33.09 31.926 46.868 36.82 70.638M153.317 77.079c5.672 26.157 30.648 47.126 34.203 69.145M157.87 98.859l29.03 58.947M160.693 116.123c8.684 22.296 19.532 35.064 25.696 50.203M161.344 129.085c6.702 19.557 20.385 34.187 24.417 47.041M162.865 142.515c5.757 17.859 20.994 34.162 22.252 47.224M164.795 156.21c5.069 16.33 17.621 29.58 19.872 45.579M167.152 171.012c5.124 13.055 15.783 30.376 17.619 43.047M169.554 187.685c4.035 12.86 13.914 24.338 16.482 37.998M169.501 200.432c4.46 10.036 11.777 18.456 16.822 30.618M169.155 207.891c6.592 13.323 14.421 20.428 17.33 30.908M168.312 215.843c6.402 10.264 14.805 21.224 17.988 30.415M167.418 223.618c4.737 2.4 11.69 17.712 15.96 26.472M167.04 229.648c2.932 4.074 3.76 3.136 12.434 20.902M166.354 239.241c3.874 4.749 5.173 8.098 6.467 11.205M152.637 27.67l-3.91 15.192M160.81 26.605l-10.306 28.962M169.338 25.539l-17.323 42.287M180.088 23.85l-26.874 53.127M183.064 30.47L154.68 84.172M182.042 43.573L157.7 98.343M181.51 58.543c-2.404 17.087-16.232 30.19-20.967 49.44M181.865 73.157c-7.167 21.44-16.823 34.088-20.922 50.639M182.353 86.172c-3.59 18.265-17.473 35.768-20.033 52.193M183.997 99.01c-4.472 18.744-14.385 28.99-20.478 48.195M186.049 107.561c-3.56 21.306-12.798 35.181-20.767 50.976M167.104 170.975c8.841-19.837 18.088-29.357 21.11-48.097M187.675 143.043c-5.591 14.9-13.18 21.64-19.064 36.413M169.68 188.627c1.181-8.475 11.659-19.898 17.4-31.032M186.2 172.923c-5.687 9.052-15.329 19.457-16.706 27.171M185.258 187.748c-5.562 7.436-12.32 14.535-16.536 23.166M184.756 199.244c-6.511 5.96-11.915 12.825-16.585 20.29M184.316 210.551c-3.298.364-9.928 9.404-17.15 18.532M185.384 220.54c-8.149 2.99-12.377 12.227-18.846 17.4M186.39 229.46c-4.956.75-13.36 9.632-20.04 14.448M186.466 237.006c-6.27 1.535-12.385 6.62-19.174 12.43M186.64 244.285c-8.234-.213-8.796 4.006-13.757 6.47"/>
        <path fill="#ff8080" fill-rule="evenodd" d="M146.721 29.42c-1.028-5.767-1.384-13.3-2.073-19.85l3.924 1.467c3.893-4.492 10.457-2.77 13.569-2.136 2.973-2.393 11.894-2.207 14.26-.942 3.23-.687 7.193-3.942 8.669 1.508-.421 5.282-.267 10.152-1.423 15.959-7.105-1.676-24.885.735-36.926 3.994z"/>
    </g>
</svg>
